X:261
T:Wolverton Hall. (p)1686.PLFD.261
M:6/4
L:1/4
Q:3/4=80
S:Playford, Dancing Master,7th Ed.,1686
O:England
H:1686.
Z:Chris Partington.
K:F
f|f2cA>GF|Bd2-d>cB|A>BcA>GF|G2ge>dc|
f2cA>GF|Bd2Ac2|B>AGAE2|F3-F2:|
|:f/g/|a>bag2c|f3fcf|dBdc>BA|Gg2g2a|
b>aga2d|g>ag.f/e>dc|f2gg2f|f3-f2:|
